!!!COM:	Johannes Ockeghem
!!!CDT:	~1425-1497/02/06
!!!OPR:	Missa Cuiusvis toni (on E)
!!!ONM:	5
!!!OTL:	Agnus Dei
!!!AGN:	Mass; Agnus Dei
!!!SCT:	Ock1004.2e
!!!SCA:	Ock1004.2e
!!!voices:	4
!!!voices-OPR:	4
**kern	**kern	**kern	**kern
*staff4	*staff3	*staff2	*staff1
*Ivox	*Ivox	*Ivox	*Ivox
*I"Bassus	*I"Tenor	*I"Altus	*I"Discantus
*I'B	*I'T	*I'A	*I'D
*>[A,B]	*>[A,B]	*>[A,B]	*>[A,B]
*>A	*>A	*>A	*>A
*clefF4	*clefGv2	*clefGv2	*clefG2
*k[]	*k[]	*k[]	*k[]
*M3/1	*M3/1	*M3/1	*M3/1
*met(O)	*met(O)	*met(O)	*met(O)
!!section: Agnus Dei I/III
!!!OMD: Agnus Dei I/III
=1-	=1-	=1-	=1-
0.r	0.r	1.e	1e
.	.	.	2g/
.	.	2f\	2a/
.	.	2e\	2.cc\
.	.	[2a\	.
.	.	.	4b\
=2	=2	=2	=2
0.r	1r	2a\]	2cc\
.	.	2g\	1b
.	1r	1e	.
.	.	.	2g/
.	1D	1f	2.a/
.	.	.	4f/
=3	=3	=3	=3
0.r	1E	1e	2g/
.	.	.	2.b\
.	1F	1A	.
.	.	.	4a/
.	.	.	1a
.	1E	1B	.
.	.	.	2g#i/
=4	=4	=4	=4
1AA	0.A	2A/	1a
.	.	2e\	.
2D\	.	2f\	1r
2C/	.	1e	.
1AA	.	.	[1cc
.	.	[2a\	.
=5	=5	=5	=5
2r	2F/	2a\]	2cc\]
1E	2G/	2g\	2.b\
.	2B\	1e	.
.	.	.	4ee\
2C/	2c\	.	1ee
2.D\	1A	1f	.
.	.	.	2dd\
4BB/	.	.	.
=6	=6	=6	=6
1C	2r	0e	1ee
.	2G/	.	.
2r	2.A/	.	0cc
1AA	.	.	.
.	4G/	.	.
.	1E	2r	.
2AA/	.	2A/	.
=7	=7	=7	=7
2.BB/	1G	2.d\	1b
4C/	.	4e\	.
1D	2F/	1f	1a
.	2D/	.	.
2r	2E/	[1e	1g
[2E\	[2G/	.	.
=8	=8	=8	=8
2E\]	2G/]	1e]	1cc
2C/	2A/	.	.
2D\	1B	2r	2b\
2E\	.	2e\	2g/
1F	1A	2.c\	2.a/
.	.	4d\	4b\
=9	=9	=9	=9
2E\	2.G/	1e	1cc
2C/	.	.	.
.	4A/	.	.
2D\	1B	1d	2b\
2BB/	.	.	2g/
1AA	2c\	2r	2a/
.	[2A/	[2c\	2f/
=10	=10	=10	=10
1C	4A/]	2c\]	1e
.	4G/	.	.
.	1E	2A/	.
2E\	.	2G/	1r
2D\	1F	1B	.
1BB	.	.	1r
.	2G/	2d\	.
=11	=11	=11	=11
2C/	2E/	2c\	0.r
2D\	1F	2.B\	.
1AA	.	.	.
.	.	4A/	.
.	1E	1A	.
1BB	.	.	.
.	2D/	2G#i/	.
=12	=12	=12	=12
1AA	1E	1.A	1c
1r	2F/	.	2d/
.	2E/	2B\	1e
1AA	1A	2c\	.
.	.	2A/	2c/
=13	=13	=13	=13
1E	1G	1B	2B/
.	.	.	1e
2C/	2A/	2c\	.
2D\	2F/	2A/	2f/
2E\	2G/	2r	2e/
2AA/	2A/	2e\	[2a/
=14	=14	=14	=14
2r	1B	2d\	2a/]
2E\	.	2B\	2g/
2C/	2A/	2c\	2a/
2BB/	2G/	4d\	1b
.	.	2B\	.
1D	1F	.	.
.	.	8A/L	.
.	.	8G/J	.
.	.	2F/	2a/
=15	=15	=15	=15
2E\	2E/	2G/	2g/
2BB/	2D/	1B	2.f/
1E	1E	.	.
.	.	.	4e/
.	.	2G/	1e
1r	1F	1A	.
.	.	.	2d/
=16	=16	=16	=16
0.El	0.El	0.Bl	0.el
!!LO:LB:i:g=z
=17||	=17||	=17||	=17||
*>B	*>B	*>B	*>B
*clefF4	*clefGv2	*clefGv2	*clefG2
*k[]	*k[]	*k[]	*k[]
*M2/1	*M2/1	*M2/1	*M2/1
*met(C|)	*met(C|)	*met(C|)	*met(C|)
!!section: Agnus Dei II
!!!OMD: Agnus Dei II
0E	0G	0B	0r
=18	=18	=18	=18
1AA	1A	1c	0r
1E	1G	1B	.
=19	=19	=19	=19
1C	1A	1E	0r
1D	1F	1B	.
=20	=20	=20	=20
1E	1G	1c	0r
1BB	1F	1d	.
=21	=21	=21	=21
1E	1G	2B\	0r
.	.	2c\	.
1G	1E	2B\	.
.	.	[2e\	.
=22	=22	=22	=22
0F	0A	2e\]	0r
.	.	2d\	.
.	.	2d\	.
.	.	2c\	.
=23	=23	=23	=23
0E	1.B	0e	0r
.	2c\	.	.
=24	=24	=24	=24
1F	1d	0r	0r
1E	[1c	.	.
=25	=25	=25	=25
1AA	2c\]	0r	0r
.	2A/	.	.
1E	1G	.	.
=26	=26	=26	=26
1F	1A	0r	0r
1G	1B	.	.
=27	=27	=27	=27
2E\	0c	0r	0r
2F\	.	.	.
2E\	.	.	.
[2A\	.	.	.
=28	=28	=28	=28
2A\]	0B	0r	0r
2G#i\	.	.	.
2G#i\	.	.	.
2F#i\	.	.	.
=29	=29	=29	=29
0A	0A	0r	0r
=30	=30	=30	=30
0AA	0A	0c	0e
=31	=31	=31	=31
1AA	1A	1c	1e
1AA	1A	1c	1e
=32	=32	=32	=32
1AA	1A	1c	1e
[1D	[1A	[1d	[1f
=33	=33	=33	=33
1D]	2A/]	2d\]	1f]
.	2F/	2B\	.
1C	1G	1c	1e
=34	=34	=34	=34
0AA	0A	0c	1.e
.	.	.	2c/
=35	=35	=35	=35
1.BB	0F	0B	1.d
2C/	.	.	2e/
=36	=36	=36	=36
1D	1r	1A	1f
1E	1B	1G	2g/
.	.	.	2e/
=37	=37	=37	=37
1AA	1.A	1.c	2f/
.	.	.	1e
2C/	.	.	.
2D\	2F/	[2B\	2a/
=38	=38	=38	=38
2BB/	1G	1B]	2b\
2E\	.	.	2g/
2r	1c	1A	1a
2A\	.	.	.
=39	=39	=39	=39
2B\	1.B	2r	2.g/
1G	.	1.d	.
.	.	.	4a/
.	.	.	1b
2F\	2A/	.	.
=40	=40	=40	=40
1.A	1A	1.c	2r
.	.	.	1.e
.	1r	.	.
2G\	.	[2B\	.
=41	=41	=41	=41
2F\	1d	4B\]	1f
.	.	4A/	.
2D\	.	4G/	.
.	.	4F/	.
2E\	[1c	1E	2g/
2AA/	.	.	[2e/
=42	=42	=42	=42
2C/	2c\]	2A/	2e/]
2D\	2.B\	2F/	2d/
1E	.	1G	1B
.	4A/	.	.
.	4G/	.	.
.	4F/	.	.
=43	=43	=43	=43
2AA/	1E	2A/	1c
1C	.	2G/	.
.	2A/	2E/	1r
2D\	4G/	2F/	.
.	4A/	.	.
=44	=44	=44	=44
1BB	2.G/	1D	1d
.	4F/	.	.
1AA	1A	1E	1c
=45	=45	=45	=45
2BB/	2F/	1r	2d/
2C/	2E/	.	1e
1AA	1A	1E	.
.	.	.	2c/
=46	=46	=46	=46
1BB	1G	1D	1B
2C/	2A/	2E/	2e/
[2BB/	[2B\	2F/	2d/
=47	=47	=47	=47
2BB/]	2B\]	2D/	2g/
2D\	2A/	2d\	2f/
2E\	2G/	2c\	2g/
2D\	2A/	[2d\	[2f/
=48	=48	=48	=48
1E	1E	4d\]	4f/]
.	.	8c\L	4e/
.	.	8B\J	.
.	.	1B	1e
1r	1F	.	.
.	.	2A/	2d/
=49	=49	=49	=49
0El	0El	0Bl	0el
==	==	==	==
*-	*-	*-	*-
!!!RDF**kern: l=long note in original notation
!!!RDF**kern: i=editorial accidental
!!!RDF**kern: V=start of tuplet marker
!!!RDF**kern: Z=end of tuplet marker
!!!ENC:	Jesse Rodin 8-24-2012
!!!END:	2012/08/24/
!!!EED:	Jesse Rodin
!!!EEV:	2012/08/28/
!!!ONB:	Translated from MusicXML and edited on 2012/08/28/ by Craig Sapp
!!muse2ps: T^@{OPR}^u^@{ONM}{. }@{OTL}^C^@{COM}^i2I150v85,85,85,150Q16
